X:103
%%vocalfont Baskerville10Pro 11
%%pagewidth 7in
T:The Bailiff's daughter of Islington(Second tune)
M:C
L:1/8
K:Eb
%%score 1 2
V:1 clef-treble
V:2 clef-bass octave=-1
V:1
BA&[B,F]2|G3F E2BA&[B,E]2[A,D]2G,2[B,F]2|G>AF>G[G,E]2(GA)&[B,E]2[A,D]2x4|B2BB e2e2&x2[EG]2[EB]4|
w:There* was a youth, and a well-le-lov-ed youth, And* he was a squi-er's
V:2
D2|(E2B,2E,2)D2|(E2B,2E,2)z2|z2E2G4|
V:1
[EGB]6(AG)|c2c=de2(dc)&x2[EA]2[EA]2[EA]2|B3A[EG]2[B,E]2&F4x4|(GF)EF[G,E]2[AD]2&C4x4|[G,E]6||
w:son; He* lov-ed the bai-liff's* daugh-ter dear, That li-*ved in Is-ling-ton.
V:2
E4 [E_d]4|[Ac]2 AB C2 BA|D4 E2G,2|A,4 B,2B,2|E,6||

